Include/imtgui/Resources/Icons/Color/Performance.svg

<svg id="Layer_1" enable-background="new 0 0 512 512" height="512" viewBox="0 0 512 512" width="512" xmlns="http://www.w3.org/2000/svg"><path d="m256 0 10 61.667-10 66.333c-70.692 0-128 57.308-128 128l-61.667 10-66.333-10c0-141.384 114.616-256 256-256z" fill="#fff200"/><path d="m256 384 10 63-10 65c-141.384 0-256-114.616-256-256h128c0 70.692 57.308 128 128 128z" fill="#ffbc36"/><path d="m512 256c0 141.384-114.616 256-256 256v-128c70.692 0 128-57.308 128-128l65-10z" fill="#fe6a16"/><path d="m512 256h-128c0-70.692-57.308-128-128-128v-128c141.384 0 256 114.616 256 256z" fill="#40e35b"/><path d="m255 103c-84.5 0-153 68.5-153 153s68.5 153 153 153 153-68.5 153-153-68.5-153-153-153zm0 276c-67.931 0-123-55.069-123-123s55.069-123 123-123 123 55.069 123 123-55.069 123-123 123z" fill="#1b3b6b"/><path d="m256 103.013v30c67.47.538 122 55.391 122 122.987s-54.53 122.449-122 122.987v30c84.038-.539 152-68.822 152-152.987s-67.962-152.448-152-152.987z" fill="#12254c"/><path d="m256 301.104c-11.556 0-23.111-4.398-31.908-13.195-17.594-17.595-17.594-46.223 0-63.817 12.117-12.116 128.078-92.298 151.201-108.249 5.959-4.111 14.005-3.378 19.124 1.741 5.12 5.119 5.852 13.165 1.741 19.124-15.951 23.123-96.132 139.084-108.248 151.201-8.799 8.796-20.354 13.195-31.91 13.195z" fill="#1b3b6b"/></svg>

<?xml version="1.0" encoding="UTF-8" standalone="no"?>
<svg
   xmlns:dc="http://purl.org/dc/elements/1.1/"
   xmlns:cc="http://creativecommons.org/ns#"
   xmlns:rdf="http://www.w3.org/1999/02/22-rdf-syntax-ns#"
   xmlns:svg="http://www.w3.org/2000/svg"
   xmlns="http://www.w3.org/2000/svg"
   xmlns:sodipodi="http://sodipodi.sourceforge.net/DTD/sodipodi-0.dtd"
   xmlns:inkscape="http://www.inkscape.org/namespaces/inkscape"
   id="Layer_1"
   enable-background="new 0 0 512 512"
   height="512"
   viewBox="0 0 512 512"
   width="512"
   version="1.1"
   sodipodi:docname="Performance.svg"
   inkscape:version="0.92.2 (5c3e80d, 2017-08-06)">
  <metadata
     id="metadata21">
    <rdf:RDF>
      <cc:Work
         rdf:about="">
        <dc:format>image/svg+xml</dc:format>
        <dc:type
           rdf:resource="http://purl.org/dc/dcmitype/StillImage" />
      </cc:Work>
    </rdf:RDF>
  </metadata>
  <defs
     id="defs19" />
  <sodipodi:namedview
     pagecolor="#ffffff"
     bordercolor="#666666"
     borderopacity="1"
     objecttolerance="10"
     gridtolerance="10"
     guidetolerance="10"
     inkscape:pageopacity="0"
     inkscape:pageshadow="2"
     inkscape:window-width="1920"
     inkscape:window-height="1028"
     id="namedview17"
     showgrid="false"
     inkscape:zoom="0.4609375"
     inkscape:cx="-46.644068"
     inkscape:cy="256"
     inkscape:window-x="-8"
     inkscape:window-y="-8"
     inkscape:window-maximized="1"
     inkscape:current-layer="Layer_1" />
  <g
     id="g838"
     transform="matrix(0.79237288,0,0,0.79237288,53.152543,53.152543)"
     style="stroke-width:1.26203203">
    <path
       id="path2"
       d="M 256,0 266,61.667 256,128 c -70.692,0 -128,57.308 -128,128 L 66.333,266 0,256 C 0,114.616 114.616,0 256,0 Z"
       inkscape:connector-curvature="0"
       style="fill:#fff200;stroke-width:1.59272492" />
    <path
       id="path4"
       d="m 256,384 10,63 -10,65 C 114.616,512 0,397.384 0,256 h 128 c 0,70.692 57.308,128 128,128 z"
       inkscape:connector-curvature="0"
       style="fill:#ffbc36;stroke-width:1.59272492" />
    <path
       id="path6"
       d="M 512,256 C 512,397.384 397.384,512 256,512 V 384 c 70.692,0 128,-57.308 128,-128 l 65,-10 z"
       inkscape:connector-curvature="0"
       style="fill:#fe6a16;stroke-width:1.59272492" />
    <path
       id="path8"
       d="M 512,256 H 384 C 384,185.308 326.692,128 256,128 V 0 c 141.384,0 256,114.616 256,256 z"
       inkscape:connector-curvature="0"
       style="fill:#40e35b;stroke-width:1.59272492" />
    <path
       id="path10"
       d="m 255,103 c -84.5,0 -153,68.5 -153,153 0,84.5 68.5,153 153,153 84.5,0 153,-68.5 153,-153 0,-84.5 -68.5,-153 -153,-153 z m 0,276 c -67.931,0 -123,-55.069 -123,-123 0,-67.931 55.069,-123 123,-123 67.931,0 123,55.069 123,123 0,67.931 -55.069,123 -123,123 z"
       inkscape:connector-curvature="0"
       style="fill:#1b3b6b;stroke-width:1.59272492" />
    <path
       id="path12"
       d="m 256,103.013 v 30 c 67.47,0.538 122,55.391 122,122.987 0,67.596 -54.53,122.449 -122,122.987 v 30 C 340.038,408.448 408,340.165 408,256 408,171.835 340.038,103.552 256,103.013 Z"
       inkscape:connector-curvature="0"
       style="fill:#12254c;stroke-width:1.59272492" />
    <path
       id="path14"
       d="m 256,301.104 c -11.556,0 -23.111,-4.398 -31.908,-13.195 -17.594,-17.595 -17.594,-46.223 0,-63.817 12.117,-12.116 128.078,-92.298 151.201,-108.249 5.959,-4.111 14.005,-3.378 19.124,1.741 5.12,5.119 5.852,13.165 1.741,19.124 -15.951,23.123 -96.132,139.084 -108.248,151.201 -8.799,8.796 -20.354,13.195 -31.91,13.195 z"
       inkscape:connector-curvature="0"
       style="fill:#1b3b6b;stroke-width:1.59272492" />
  </g>
</svg>
